X:1
T:Title
%%score { ( 1 4 ) | ( 2 3 ) }
L:1/8
Q:1/4=100
M:6/8
K:G
V:1 treble nm="Grand Piano"
V:4 treble 
V:2 bass 
V:3 bass 
V:1
 [B,D]2 [B,D] DEF | [B,G]2 [B,G] [B,G][CA][DB] | z3 .c3 | [DB]2 [^C_B] .[D=B]3 | [B,D]2 [B,D] DEF | %5
w: R.~Rank~Lehman * * * *|||||
 [B,G]2 [B,G] [B,G][CA][DB] | [DB]2 [DA] [DB]2 [DA] |[M:13/16] [^CB]-<[CB][CA] z/ z/ z =C3/2 | %8
w: |||
[M:3/4] [B,D]2 [B,D]D EF | [B,G]2 [B,G][B,G] [CA][DB] | [Ec]2 [Ec]c G[^DA] | [DB]2 [^C_B] .[D=B]3 | %12
w: ||||
 [DB]2 [DB] [=Fd]2 [Fd] | [Ec]2 [Ec] [_B,EG]2 [B,EG] | [B,GB]3 [CFA]3 | [B,DG]6 | %16
w: ||||
 [DGB]2 [DGB] [E^Ge]2 [EGd] | [EAc]2 [EAc] [DFd]2 [DFc] | [DGB]2 [CFA] [B,EG]2 [B,^DF] | %19
w: |||
[M:7/8] [B,EG]2 [EA] [^DB]3 z |[M:3/4] B_B [D=B] [Ee]2 [Ed] | cB [Ec] [Fd]2 [Fc] | %22
w: |||
 BA B [Ec]2 [EA] | G2 F .G3 |] %24
w: ||
V:2
 z3 .F,3 | [G,,G,]2 [G,,G,] [G,,G,]2 [G,,G,] | [C,G,]2 [C,G,] [C,G,]2 [C,G,] | %3
 [G,,G,]2 [G,,G,] .[G,,G,]3 | z3 .F,3 | [G,,G,]2 [G,,G,] [G,,G,]2 [G,,G,] | %6
 [A,,F,]2 [A,,F,] [A,,F,]2 [A,,F,] | %7
[M:13/16] [A,,G,]-<[A,,G,][A,,G,][D,F,]/-[D,F,]/-[D,F,]/-[D,F,]-<[D,F,] |[M:3/4] z2 z F, z2 | %9
 [G,,G,]2 [G,,G,] [G,,G,]2 [G,,G,] | [C,G,]2 [C,G,] [C,G,]2 [C,G,] | [G,,G,]2 [G,,G,] .[G,,G,]3 | %12
 [G,,G,]2 [G,,G,] [B,,^G,]2 [B,,G,] | [C,A,]2 [C,A,] ^C,2 C, | D,3 D,3 | G,6 | G,2 G, E,2 E, | %17
 A,2 A, D,2 D, | G,2 D, E,2 B,, |[M:7/8] E,2 [C,E,] [B,,F,]3 z | %20
[M:3/4] [G,,G,]2 [G,,G,] [E,^G,]2 [E,G,] | [A,,A,]2 [A,,A,] [D,A,]2 [D,D] | %22
 [G,DG]2 [G,D=F][K:bass] [C,C]2 [C,C] | [D,B,D]2 [D,A,D] .[G,B,D]3 |] %24
V:3
 [G,,G,]2 [G,,G,] [D,C]-[D,G,C][D,A,C] | x6 | x6 | x6 | [G,,G,]2 [G,,G,] [D,C]-[D,G,C][D,A,C] | %5
 x6 | x6 |[M:13/16] x13/2 |[M:3/4] [G,,G,]2 [G,,G,]D,- [D,G,C][D,A,C] | x6 | x6 | x6 | x6 | x6 | %14
 x6 | x6 | x6 | x6 | x6 |[M:7/8] x7 |[M:3/4] x6 | x6 | x3[K:bass] x3 | x6 |] %24
V:4
 x6 | x6 | [Ec]2 [Ec] E-[EG][EA] | x6 | x6 | x6 | x6 |[M:13/16] z/ z/ z/ z/ z D/-D/-D/-D-<D | %8
[M:3/4] x6 | x6 | z2 z .E3 | x6 | x6 | x6 | x6 | x6 | x6 | x6 | x6 |[M:7/8] x7 |[M:3/4] D2 z2 z2 | %21
 E2 z2 z2 | x6 | x6 |] %24

